X: 045
M: C
L: 1/8
K: Gm
d | gdBd (g/a/b)(ag) | fdcB  Acfa |  gdBd  (g/a/b)(ag) | fcAc dG-G ||
d | gdBd  gbag       | fcAc  fagf |  gbdg   fdcB       | AFcA dG-G |]


